assets/img/base/adv2.svg

<svg width="71" height="71" viewBox="0 0 71 71" fill="none" xmlns="http://www.w3.org/2000/svg">
<g clip-path="url(#clip0_160_16)">
<path d="M33.3506 0.970711C20.0381 1.74728 8.22324 10.3727 3.27265 22.9363C-0.235749 31.7975 0.221869 42.3504 4.4791 50.8232C7.36347 56.6059 12.217 61.8615 17.6807 65.1342C25.8068 70.0154 35.5693 71.3606 44.7217 68.8506C53.0697 66.5625 60.6412 60.7938 65.1342 53.3193C71.7627 42.3088 71.735 28.4139 65.0787 17.5559C62.2775 12.9936 58.0064 8.72247 53.4441 5.9213C48.965 3.18946 43.2934 1.34513 38.3982 1.04005C35.7357 0.887512 35.1117 0.873642 33.3506 0.970711ZM44.0145 13.257C44.1809 13.4234 44.2363 13.784 44.2363 14.8379C44.2363 15.8918 44.1809 16.2524 44.0145 16.4188C43.7648 16.6822 43.7371 16.6822 43.3904 16.502C43.1547 16.3633 43.1269 16.1969 43.1269 14.8656C43.1269 13.3818 43.224 13.0352 43.6262 13.0352C43.7232 13.0352 43.9035 13.1322 44.0145 13.257ZM38.4398 14.7963C38.7449 15.1707 39.7988 17.0567 39.7988 17.2508C39.7988 17.5004 39.5076 17.75 39.2164 17.75C38.9529 17.75 38.2596 16.7793 37.7049 15.6283C37.4414 15.1014 37.4275 14.9627 37.5801 14.7824C37.8158 14.4912 38.1764 14.5051 38.4398 14.7963ZM49.6168 14.727C49.8941 15.0043 49.8109 15.2678 49.076 16.5436C48.4381 17.6391 48.3271 17.7639 47.9943 17.7223C47.2871 17.6391 47.4812 16.9457 48.757 14.8656C48.9789 14.5328 49.3533 14.4635 49.6168 14.727ZM34.876 18.5127C36.1656 19.2061 36.3736 19.4002 36.3043 19.8578C36.235 20.357 35.7773 20.3154 34.6541 19.6776C33.4754 18.9981 33.1426 18.7484 33.1426 18.4988C33.1426 18.3186 33.5031 17.8887 33.6557 17.8887C33.6973 17.8887 34.2519 18.166 34.876 18.5127ZM45.7478 18.0967C49.173 18.9149 51.8217 21.9102 52.2654 25.5156C52.6953 28.9547 51.2254 31.9777 48.0637 34.1133C47.5922 34.4322 47.301 34.765 47.0791 35.2504L46.7602 35.9438L47.301 36.4707C47.7725 36.9145 47.8418 37.067 47.8418 37.6078C47.8418 37.9406 47.7586 38.3428 47.6477 38.4815C47.4812 38.7172 47.4812 38.7865 47.6477 39.0223C47.7586 39.1748 47.8418 39.577 47.8418 39.9236C47.8418 40.4506 47.7725 40.6031 47.2871 41.0608C46.774 41.5461 46.7324 41.6432 46.7324 42.3088C46.7324 42.8635 46.6631 43.1131 46.4273 43.3627C46.1361 43.6678 46.0668 43.6816 43.6539 43.6816C41.1994 43.6816 41.1717 43.6816 40.8389 43.335C40.5615 43.0715 40.4922 42.8635 40.4922 42.2949C40.4922 41.6709 40.4367 41.5322 40.0207 41.1301C39.4105 40.5615 39.2719 40.0484 39.5492 39.2996C39.7156 38.8143 39.7295 38.6617 39.577 38.3983C39.2025 37.7326 39.5076 36.5955 40.1316 36.3043C40.3396 36.2211 40.4922 36.0547 40.4922 35.9299C40.4783 35.4723 39.8404 34.5848 39.1748 34.1133C38.0238 33.309 36.4291 31.6172 35.9437 30.6881C34.6125 28.1504 34.6264 24.8223 36.0131 22.34C36.7342 21.0227 38.3705 19.4418 39.674 18.8178C40.2426 18.5404 41.0469 18.2215 41.4629 18.1106C42.4613 17.8471 44.6385 17.8471 45.7478 18.0967ZM53.8186 18.0274C53.9572 18.1106 54.082 18.3186 54.082 18.5127C54.082 18.7762 53.8602 18.9703 52.8478 19.5389C51.5443 20.2877 51.2947 20.357 51.0312 20.0381C50.7123 19.6498 50.9619 19.3447 52.21 18.6236C52.9033 18.2215 53.4719 17.8887 53.4996 17.8887C53.5273 17.8887 53.666 17.958 53.8186 18.0274ZM33.9469 23.9625C34.0439 24.5727 33.7805 24.6836 32.2551 24.6836C30.8129 24.6836 30.5078 24.5865 30.5078 24.1289C30.5078 23.6436 30.8129 23.5604 32.3799 23.602C33.8498 23.6436 33.9053 23.6574 33.9469 23.9625ZM56.6891 23.9625C56.7861 24.5727 56.5227 24.6836 54.9973 24.6836C53.5551 24.6836 53.25 24.5865 53.25 24.1289C53.25 23.6436 53.5551 23.5604 55.1221 23.602C56.592 23.6436 56.6475 23.6574 56.6891 23.9625ZM17.958 27.9979C18.2631 28.1365 18.6514 28.4 18.8039 28.5803C18.9703 28.7606 20.8285 31.9084 22.9363 35.5693C25.5572 40.1317 26.9301 42.3643 27.2768 42.6693C29.1072 44.3057 32.6156 44.1393 34.557 42.3227L34.9314 41.976L36.0824 42.3365C38.3289 43.0438 40.1316 44.4998 40.7834 46.1361C41.1023 46.9127 41.1023 47.093 41.1578 52.2238C41.1994 56.9803 41.1855 57.535 40.9775 57.743C40.7695 57.9371 39.9375 57.9649 32.1025 57.9649C24.4201 57.9649 23.4355 57.9371 23.2414 57.743C23.0473 57.5627 23.0195 56.8416 23.0195 51.9326V46.3303L18.9426 39.258C16.6961 35.3752 14.7269 31.95 14.5744 31.6311C14.0475 30.6188 14.2832 29.1072 15.0736 28.4C15.8086 27.7344 17.0289 27.568 17.958 27.9979ZM32.6018 31.3676C33.5586 31.8113 34.3352 32.5879 34.7928 33.5586C35.1395 34.2797 35.1533 34.4461 35.1533 36.4707C35.1533 38.5369 35.1395 38.6479 34.765 39.4106C33.101 42.808 28.1781 42.7248 26.5834 39.2719C26.306 38.6895 26.2783 38.3844 26.2783 36.4014C26.2783 34.252 26.2922 34.1549 26.6527 33.4615C27.2768 32.2967 28.2613 31.4647 29.5371 31.0486C30.2027 30.8268 31.7975 30.9932 32.6018 31.3676Z" fill="#02361E"/>
<path d="M41.6016 19.2199C40.0207 19.6498 38.4953 20.7314 37.483 22.1459C36.5816 23.4217 36.1795 24.5865 36.0963 26.209C35.9438 28.9963 36.9838 31.0764 39.4522 32.9068C40.6863 33.8221 41.241 34.5154 41.5045 35.4584L41.657 36.0547H43.64H45.6231L45.7063 35.6664C45.9836 34.557 46.6215 33.725 47.8418 32.893C49.284 31.9223 50.435 30.383 50.9203 28.7744C51.267 27.665 51.3225 25.7236 51.0313 24.6836C50.324 22.1043 48.2301 19.9965 45.6369 19.2199C44.694 18.9426 42.6416 18.9426 41.6016 19.2199ZM43.2656 20.8424C43.5568 20.9949 43.6955 20.9949 44.0977 20.8285C45.0129 20.4541 46.0945 20.8146 46.6076 21.7021C46.774 21.9934 47.0236 22.1875 47.2733 22.2291C48.3965 22.4648 49.2979 24.0318 48.965 25.1967C48.868 25.5434 48.9096 25.7652 49.1731 26.2922C49.5752 27.0826 49.6029 27.873 49.2424 28.6496C48.9928 29.1904 48.341 29.8145 47.8141 29.9947C47.6893 30.0363 47.509 30.3275 47.4258 30.6188C47.2317 31.3537 46.8018 31.8807 46.1223 32.1857C45.4289 32.5047 44.8188 32.5186 44.1254 32.2412C43.6539 32.0471 43.543 32.0471 43.0854 32.2412C42.4891 32.4908 41.9067 32.5047 41.3658 32.2967C40.6309 32.0193 39.7988 31.0209 39.7988 30.3969C39.7988 30.2305 39.6324 30.0641 39.369 29.9531C38.7172 29.6758 38.0516 28.9131 37.8574 28.2197C37.6772 27.5541 37.8297 26.5695 38.2041 26.0426C38.3289 25.8484 38.3566 25.5156 38.315 24.9609C38.1902 23.6297 38.9252 22.4648 40.0484 22.243C40.3258 22.1875 40.5199 22.0211 40.6725 21.6883C41.0746 20.8563 42.4336 20.4125 43.2656 20.8424Z" fill="#02361E"/>
<path d="M41.7541 22.132C41.449 22.5203 41.4074 22.7699 41.5877 23.2276C41.8789 23.9209 40.922 24.3231 40.6031 23.6436C40.3951 23.186 40.1732 23.1998 39.7433 23.7268C39.0916 24.5033 39.3689 25.5988 40.3258 25.9733C40.8943 26.1951 41.0885 26.4725 40.9636 26.833C40.825 27.1797 40.3812 27.2074 39.7295 26.9162L39.0916 26.6389L38.9529 27.0133C38.731 27.568 38.9252 28.2197 39.4105 28.6358C39.7711 28.9408 39.9513 28.9963 40.6031 28.9686C41.1994 28.9408 41.4074 28.9824 41.5461 29.1904C41.7679 29.4955 41.6015 29.8977 41.1855 30.0225C40.7972 30.1473 40.8388 30.4662 41.3103 30.9377C41.7541 31.3676 42.1978 31.4369 42.7802 31.1735L43.1269 31.0209V26.5557C43.1269 23.283 43.0853 22.0627 42.9605 21.9379C42.6693 21.6467 42.0592 21.7438 41.7541 22.132Z" fill="#02361E"/>
<path d="M44.4166 21.8686C44.2779 21.924 44.2363 22.9779 44.2363 26.4863C44.2363 30.8545 44.2502 31.0625 44.4998 31.2012C45.1238 31.534 46.0529 31.1457 46.3025 30.4523C46.3996 30.2166 46.3441 30.1334 46.0252 29.9947C45.734 29.8699 45.623 29.7313 45.623 29.4816C45.623 29.024 45.8033 28.927 46.677 28.9686C47.509 28.9963 47.9805 28.7744 48.2301 28.2059C48.4381 27.776 48.4381 27.249 48.2578 26.9023C48.133 26.6666 48.1053 26.6666 47.6061 26.9162C46.982 27.2352 46.6908 27.249 46.4551 26.9717C46.1916 26.6527 46.358 26.3199 46.9404 26.0148C47.7031 25.6127 48.0637 24.8777 47.8418 24.1982C47.6893 23.7406 47.2455 23.2969 46.9404 23.2969C46.8572 23.2969 46.7324 23.4356 46.6631 23.602C46.566 23.8377 46.4135 23.9209 46.1084 23.9209H45.6924L45.734 23.1305C45.7617 22.4787 45.7201 22.2846 45.4982 22.0627C45.2209 21.7854 44.791 21.716 44.4166 21.8686Z" fill="#02361E"/>
<path d="M40.6586 37.3305C40.4367 37.5523 40.4506 37.7881 40.7141 38.0516C40.8944 38.2318 41.352 38.2734 43.5985 38.2734C46.4967 38.2734 46.8018 38.2041 46.7047 37.5662L46.6631 37.2334L43.751 37.1918C41.6016 37.1641 40.7834 37.2057 40.6586 37.3305Z" fill="#02361E"/>
<path d="M40.6586 39.5492C40.4367 39.7711 40.4506 40.0068 40.7141 40.2703C40.8944 40.4506 41.352 40.4922 43.5985 40.4922C46.4967 40.4922 46.8018 40.4229 46.7047 39.785L46.6631 39.4521L43.751 39.4105C41.6016 39.3828 40.7834 39.4244 40.6586 39.5492Z" fill="#02361E"/>
<path d="M41.6016 42.0869V42.5723H43.6123H45.623V42.0869V41.6016H43.6123H41.6016V42.0869Z" fill="#02361E"/>
<path d="M15.8641 29.3152C15.3232 29.8561 15.24 30.5078 15.6145 31.2428C15.7531 31.4924 17.7084 34.9176 19.9826 38.8559L24.1289 46.0252V51.4334V56.8555H29.9531H35.7774V53.9572C35.7774 51.5027 35.8051 51.0174 35.9992 50.8371C36.1102 50.7123 36.2904 50.6152 36.3875 50.6152C36.8313 50.6152 36.8867 50.9342 36.8867 53.9018V56.8555H38.4953H40.09L40.0484 51.9604L40.0068 47.0791L39.6186 46.3025C38.9945 45.0268 37.5385 43.9174 35.819 43.4043C35.2781 43.2379 35.2088 43.2518 34.8205 43.5846C32.574 45.4705 28.2613 45.318 26.3061 43.2795C26.0287 43.0021 24.0734 39.7572 21.9379 36.0547C19.109 31.1596 17.9441 29.2598 17.6529 29.0934C17.015 28.6912 16.4049 28.7744 15.8641 29.3152Z" fill="#02361E"/>
<path d="M29.3152 32.366C28.4971 32.7404 27.7067 33.6141 27.4848 34.3768C27.2352 35.1811 27.2768 38.0238 27.5264 38.6479C27.8731 39.466 28.3445 39.9791 29.135 40.4229C30.9654 41.4074 33.2119 40.5338 33.9053 38.5369C34.044 38.1486 34.1133 37.4137 34.1133 36.3459C34.1133 35.0285 34.0578 34.6264 33.8221 34.1133C33.0178 32.3244 31.0486 31.5617 29.3152 32.366Z" fill="#02361E"/>
</g>
<defs>
<clipPath id="clip0_160_16">
<rect width="71" height="71" fill="white"/>
</clipPath>
</defs>
</svg>

<svg width="71" height="71" fill="none" xmlns="http://www.w3.org/2000/svg"><g clip-path="url(#a)" fill="#02361E"><path d="M33.35.97c-13.312.777-25.127 9.403-30.077 21.966C-.236 31.797.222 42.35 4.479 50.823c2.884 5.783 7.738 11.038 13.202 14.311a34.68 34.68 0 0 0 27.04 3.717c8.349-2.288 15.92-8.057 20.413-15.532 6.629-11.01 6.601-24.905-.055-35.763-2.801-4.562-7.073-8.834-11.635-11.635-4.479-2.732-10.15-4.576-15.046-4.881-2.662-.152-3.286-.166-5.047-.07Zm10.664 12.287c.167.166.222.527.222 1.58 0 1.055-.055 1.415-.221 1.582-.25.263-.278.263-.625.083-.235-.139-.263-.305-.263-1.636 0-1.484.097-1.83.5-1.83.096 0 .276.096.387.221Zm-5.574 1.54c.305.374 1.359 2.26 1.359 2.454 0 .25-.291.499-.583.499-.263 0-.956-.97-1.511-2.122-.264-.527-.277-.665-.125-.846.236-.29.596-.277.86.014Zm11.177-.07c.277.277.194.54-.541 1.817-.638 1.095-.749 1.22-1.082 1.178-.707-.083-.513-.776.763-2.856.222-.333.596-.402.86-.139Zm-14.741 3.786c1.29.693 1.498.887 1.428 1.345-.069.499-.527.457-1.65-.18-1.179-.68-1.511-.93-1.511-1.18 0-.18.36-.61.513-.61.041 0 .596.278 1.22.625Zm10.872-.416c3.425.818 6.074 3.813 6.517 7.419.43 3.439-1.04 6.462-4.201 8.597-.472.32-.763.652-.985 1.137l-.319.694.541.527c.471.444.54.596.54 1.137 0 .333-.082.735-.193.873-.167.236-.167.305 0 .541.11.153.194.555.194.902 0 .527-.07.68-.555 1.137-.513.485-.555.582-.555 1.248 0 .555-.069.804-.305 1.054-.29.305-.36.319-2.773.319-2.455 0-2.482 0-2.815-.347-.277-.264-.347-.471-.347-1.04 0-.624-.055-.763-.471-1.165-.61-.569-.75-1.082-.472-1.83.167-.486.18-.638.028-.902-.374-.665-.07-1.803.555-2.094.208-.083.36-.25.36-.374-.014-.458-.652-1.345-1.317-1.817-1.151-.804-2.746-2.496-3.231-3.425-1.332-2.538-1.318-5.866.07-8.348.72-1.317 2.356-2.898 3.66-3.522.569-.278 1.373-.597 1.789-.707.998-.264 3.175-.264 4.285-.014Zm8.07-.07a.614.614 0 0 1 .264.486c0 .263-.222.457-1.234 1.026-1.304.749-1.553.818-1.817.5-.319-.39-.07-.694 1.179-1.415.693-.402 1.262-.735 1.29-.735.027 0 .166.069.319.138Zm-19.871 5.935c.097.61-.166.722-1.692.722-1.442 0-1.747-.098-1.747-.555 0-.485.305-.569 1.872-.527 1.47.042 1.525.055 1.567.36Zm22.742 0c.097.61-.166.722-1.692.722-1.442 0-1.747-.098-1.747-.555 0-.485.305-.569 1.872-.527 1.47.042 1.526.055 1.567.36Zm-38.731 4.036c.305.139.693.402.846.582.166.18 2.024 3.328 4.132 6.99 2.621 4.562 3.994 6.794 4.34 7.1 1.831 1.636 5.34 1.47 7.281-.347l.374-.347 1.151.36c2.247.708 4.05 2.164 4.701 3.8.32.777.32.957.375 6.088.041 4.756.027 5.311-.18 5.519-.209.194-1.04.222-8.876.222-7.682 0-8.666-.028-8.86-.222-.195-.18-.223-.901-.223-5.81V46.33l-4.076-7.072c-2.247-3.883-4.216-7.308-4.369-7.627-.527-1.012-.29-2.524.5-3.231.735-.666 1.955-.832 2.884-.402Zm14.644 3.37a4.546 4.546 0 0 1 2.19 2.19c.347.722.361.888.361 2.913 0 2.066-.014 2.177-.388 2.94-1.664 3.397-6.587 3.314-8.182-.14-.277-.581-.305-.887-.305-2.87 0-2.149.014-2.246.375-2.94a4.936 4.936 0 0 1 2.884-2.412c.666-.222 2.26-.056 3.065.319Z"/><path d="M41.602 19.22c-1.581.43-3.107 1.511-4.119 2.926-.901 1.276-1.303 2.44-1.387 4.063-.152 2.787.888 4.867 3.356 6.698 1.234.915 1.789 1.608 2.053 2.551l.152.597h3.966l.083-.389c.278-1.109.915-1.941 2.136-2.773 1.442-.97 2.593-2.51 3.078-4.119.347-1.109.402-3.05.111-4.09-.707-2.58-2.8-4.688-5.394-5.464-.943-.277-2.995-.277-4.035 0Zm1.664 1.622c.29.153.43.153.832-.014a2.026 2.026 0 0 1 2.51.874c.166.291.416.485.665.527 1.123.236 2.025 1.803 1.692 2.968-.097.346-.055.568.208 1.095.402.79.43 1.581.07 2.358-.25.54-.902 1.165-1.429 1.345-.125.041-.305.332-.388.624-.194.735-.624 1.262-1.304 1.567-.693.319-1.303.333-1.997.055-.471-.194-.582-.194-1.04 0-.596.25-1.178.264-1.72.056-.734-.278-1.566-1.276-1.566-1.9 0-.166-.167-.333-.43-.444-.652-.277-1.317-1.04-1.512-1.733-.18-.666-.027-1.65.347-2.177.125-.195.153-.527.111-1.082-.125-1.331.61-2.496 1.733-2.718.278-.055.472-.222.624-.555.403-.832 1.762-1.275 2.594-.846Z"/><path d="M41.754 22.132c-.305.388-.347.638-.166 1.096.29.693-.666 1.095-.985.416-.208-.458-.43-.444-.86.083-.651.776-.374 1.872.583 2.246.568.222.763.5.638.86-.139.347-.583.374-1.234.083l-.638-.277-.14.374c-.221.555-.027 1.207.459 1.623.36.305.54.36 1.192.333.596-.028.804.013.943.221.222.305.056.708-.36.832-.389.125-.347.444.124.916.444.43.888.499 1.47.236l.347-.153v-4.465c0-3.273-.042-4.493-.166-4.618-.292-.291-.902-.194-1.207.194ZM44.417 21.869c-.14.055-.18 1.109-.18 4.617 0 4.369.013 4.576.263 4.715.624.333 1.553-.055 1.803-.749.097-.235.041-.319-.278-.457-.291-.125-.402-.264-.402-.513 0-.458.18-.555 1.054-.513.832.027 1.303-.195 1.553-.763.208-.43.208-.957.028-1.304-.125-.235-.153-.235-.652.014-.624.32-.915.333-1.15.056-.264-.32-.098-.652.484-.957.763-.402 1.124-1.137.902-1.817-.153-.457-.596-.901-.902-.901-.083 0-.208.139-.277.305-.097.236-.25.319-.555.319h-.416l.042-.79c.028-.652-.014-.846-.236-1.068-.277-.278-.707-.347-1.081-.194ZM40.659 37.33c-.222.222-.208.458.055.722.18.18.638.221 2.885.221 2.898 0 3.203-.069 3.106-.707l-.042-.333-2.912-.041c-2.15-.028-2.968.014-3.092.139ZM40.659 39.55c-.222.221-.208.457.055.72.18.18.638.222 2.885.222 2.898 0 3.203-.07 3.106-.707l-.042-.333-2.912-.041c-2.15-.028-2.968.013-3.092.138ZM41.602 42.087v.485h4.021v-.97h-4.021v.485ZM15.864 29.315c-.54.541-.624 1.193-.25 1.928.14.25 2.094 3.675 4.369 7.613l4.146 7.17v10.829h11.648v-2.898c0-2.454.028-2.94.222-3.12.111-.125.291-.222.389-.222.443 0 .499.32.499 3.287v2.953H40.09l-.042-4.895-.041-4.88-.388-.777c-.624-1.276-2.08-2.386-3.8-2.899-.54-.166-.61-.152-.998.18-2.247 1.886-6.56 1.734-8.515-.305-.277-.277-2.233-3.522-4.368-7.224-2.829-4.895-3.994-6.795-4.285-6.962-.638-.402-1.248-.319-1.789.222Z"/><path d="M29.315 32.366c-.818.374-1.608 1.248-1.83 2.01-.25.805-.208 3.648.041 4.272.347.818.819 1.331 1.609 1.775 1.83.984 4.077.11 4.77-1.886.139-.388.208-1.123.208-2.191 0-1.317-.055-1.72-.29-2.233-.805-1.789-2.774-2.551-4.508-1.747Z"/></g><defs><clipPath id="a"><path fill="#fff" d="M0 0h71v71H0z"/></clipPath></defs></svg>
